Hatter-kde/places/symbolic/folder-torrent-symbolic.svg

<svg xmlns="http://www.w3.org/2000/svg" width="16" height="16" version="1.1" viewBox="0 0 16 16">
 <defs>
  <style id="current-color-scheme" type="text/css">
   .ColorScheme-Text { color:#363636; }
  </style>
 </defs>
 <path fill="currentColor" class="ColorScheme-Text" d="m 8,0 a 8,8 0 0 0 -8,8 8,8 0 0 0 8,8 8,8 0 0 0 5.277344,-2 L 8,14 A 6,6 0 0 1 2,8 6,6 0 0 1 8,2 l 0,1 a 5,5 0 0 0 -5,5 5,5 0 0 0 5,5 l 3.308594,0 2.927734,0 a 8,8 0 0 0 0.683594,-1 L 8,12 C 5.790861,12 4,10.209139 4,8 4,5.790861 5.790861,4 8,4 8.337519,4.00126 8.673523,4.045229 9,4.1308594 L 9,5.1757812 C 8.679075,5.0608002 8.3409,5.0014 8,5 6.343146,5 5,6.343146 5,8 c 0,1.656854 1.343146,3 3,3 l 7.410156,0 a 8,8 0 0 0 0.324219,-1 L 8,10 A 2,2 0 0 1 6,8 2,2 0 0 1 8,6 2,2 0 0 1 9.730469,7 L 8,7 A 1,1 0 0 0 7,8 1,1 0 0 0 8,9 l 7.929688,0 a 8,8 0 0 0 0.07031,-1 8,8 0 0 0 -8,-8 z" />
</svg>

<?xml version="1.0" encoding="UTF-8"?>
<svg width="16" height="16" version="1.1" viewBox="0 0 16 16" xmlns="http://www.w3.org/2000/svg">
 <defs>
  <style id="current-color-scheme" type="text/css">.ColorScheme-Text { color:#363636; }</style>
 </defs>
 <path class="ColorScheme-Text" d="m8 0a8 8 0 0 0-8 8 8 8 0 0 0 8 8 8 8 0 0 0 5.2773-2h-5.2773a6 6 0 0 1-6-6 6 6 0 0 1 6-6v1a5 5 0 0 0-5 5 5 5 0 0 0 5 5h3.3086 2.9277a8 8 0 0 0 0.68359-1h-6.9199c-2.2091 0-4-1.7909-4-4s1.7909-4 4-4c0.33752 0.00126 0.67352 0.045229 1 0.13086v1.0449c-0.32092-0.11498-0.6591-0.17438-1-0.17578-1.6569 0-3 1.3431-3 3s1.3431 3 3 3h7.4102a8 8 0 0 0 0.32422-1h-7.7344a2 2 0 0 1-2-2 2 2 0 0 1 2-2 2 2 0 0 1 1.7305 1h-1.7305a1 1 0 0 0-1 1 1 1 0 0 0 1 1h7.9297a8 8 0 0 0 0.07031-1 8 8 0 0 0-8-8z" fill="currentColor"/>
</svg>
